examples/icons/lock.svg

<?xml version="1.0" encoding="UTF-8"?>
<!DOCTYPE svg PUBLIC "-//W3C//DTD SVG 1.1//EN" "http://www.w3.org/Graphics/SVG/1.1/DTD/svg11.dtd">
<svg xmlns="http://www.w3.org/2000/svg" version="1.1" width="192px" height="192px" style="shape-rendering:geometricPrecision; text-rendering:geometricPrecision; image-rendering:optimizeQuality; fill-rule:evenodd; clip-rule:evenodd" xmlns:xlink="http://www.w3.org/1999/xlink">
<g><path style="opacity:0.975" fill="#000000" d="M 86.5,15.5 C 111.142,12.8891 127.309,23.2224 135,46.5C 135.5,54.8267 135.666,63.16 135.5,71.5C 147.371,71.5316 155.204,77.1982 159,88.5C 159.971,112.896 159.637,137.23 158,161.5C 154.686,168.149 149.519,172.649 142.5,175C 111.167,175.667 79.8333,175.667 48.5,175C 41.4808,172.649 36.3141,168.149 33,161.5C 31.3628,137.23 31.0295,112.896 32,88.5C 35.7961,77.1982 43.6294,71.5316 55.5,71.5C 51.7469,52.9821 56.4136,37.1488 69.5,24C 74.9056,20.4864 80.5722,17.653 86.5,15.5 Z M 92.5,31.5 C 105.347,31.535 113.847,37.535 118,49.5C 119.247,56.779 119.747,64.1124 119.5,71.5C 103.5,71.5 87.5,71.5 71.5,71.5C 71.3338,65.1579 71.5005,58.8246 72,52.5C 74.3201,41.014 81.1534,34.014 92.5,31.5 Z M 55.5,87.5 C 83.5506,87.0338 111.551,87.5338 139.5,89C 141.317,90.7998 142.484,92.9664 143,95.5C 143.667,114.167 143.667,132.833 143,151.5C 142.463,156.037 139.963,158.537 135.5,159C 107.451,159.966 79.4513,159.633 51.5,158C 49.683,156.2 48.5163,154.034 48,151.5C 47.3333,132.833 47.3333,114.167 48,95.5C 48.7175,90.9537 51.2175,88.287 55.5,87.5 Z"/></g>
</svg>

<svg width="192" height="192" style="shape-rendering:geometricPrecision;text-rendering:geometricPrecision;image-rendering:optimizeQuality;fill-rule:evenodd;clip-rule:evenodd" xmlns="http://www.w3.org/2000/svg"><g style="fill:#fff"><path style="opacity:.975;fill:#fff" fill="#000" d="M86.5 15.5c24.642-2.61 40.809 7.722 48.5 31a313 313 0 0 1 .5 25c11.871.032 19.704 5.698 23.5 17a681.34 681.34 0 0 1-1 73c-3.314 6.649-8.481 11.149-15.5 13.5-31.333.667-62.667.667-94 0-7.02-2.351-12.186-6.851-15.5-13.5a681.417 681.417 0 0 1-1-73c3.796-11.302 11.63-16.968 23.5-17-3.753-18.518.914-34.351 14-47.5 5.406-3.514 11.072-6.347 17-8.5Zm6 16c12.847.035 21.347 6.035 25.5 18a108.486 108.486 0 0 1 1.5 22h-48c-.166-6.342 0-12.675.5-19 2.32-11.486 9.153-18.486 20.5-21Zm-37 56a1217.2 1217.2 0 0 1 84 1.5c1.817 1.8 2.984 3.966 3.5 6.5a783.858 783.858 0 0 1 0 56c-.537 4.537-3.037 7.037-7.5 7.5a905.238 905.238 0 0 1-84-1c-1.817-1.8-2.984-3.966-3.5-6.5a784.21 784.21 0 0 1 0-56c.718-4.546 3.218-7.213 7.5-8Z"/></g></svg>
